X:416
T:Habanera
R:Habanera
C:Tradicional
S:Msica Tradicional Asturiana, (C) Tello & Tito. Asturies, 2001.
S:http://pagina.de/MusTradAst <telloytito@asturies.org>
A:Asturies
Z:Danzas y Bailes I
M:2/4
L:1/8
Q:1/4=72
K:Gm
|D>D D/=E/F/G/|A>A D>D|D/E/F/G/ A2|
|: G>G G/F/=E/G/|F>F E>E|E/D/^C/E/ D2-|D4-|D2 z2 :|
